src/assets/icons/track.svg

<svg width="24" height="24" viewBox="0 0 24 24" fill="none" xmlns="http://www.w3.org/2000/svg">
<path d="M19 11.993L22.535 8.53499C23.48 7.59099 24 6.33499 24 4.99899C24 3.66299 23.48 2.40799 22.535 1.46299C21.591 0.518993 20.335 -0.00100708 19 -0.00100708C17.665 -0.00100708 16.409 0.518993 15.464 1.46299C13.514 3.41299 13.514 6.58499 15.468 8.53799L19 11.992V11.993ZM16.171 2.17099C16.927 1.41599 17.931 0.999993 19 0.999993C20.069 0.999993 21.073 1.41599 21.828 2.17099C22.584 2.92599 23 3.93099 23 4.99999C23 6.06899 22.584 7.07299 21.832 7.82499L19 10.595L16.171 7.82899C14.611 6.26899 14.611 3.72999 16.171 2.17099ZM2 20C0.897 20 0 20.897 0 22C0 23.103 0.897 24 2 24C3.103 24 4 23.103 4 22C4 20.897 3.103 20 2 20ZM2 23C1.449 23 1 22.551 1 22C1 21.449 1.449 21 2 21C2.551 21 3 21.449 3 22C3 22.551 2.551 23 2 23ZM10.5 16C10.5 17.103 11.397 18 12.5 18C13.603 18 14.5 17.103 14.5 16C14.5 14.897 13.603 14 12.5 14C11.397 14 10.5 14.897 10.5 16ZM13.5 16C13.5 16.551 13.051 17 12.5 17C11.949 17 11.5 16.551 11.5 16C11.5 15.449 11.949 15 12.5 15C13.051 15 13.5 15.449 13.5 16ZM24 19.5C24 21.43 22.43 23 20.5 23H5.874C5.956 22.68 6 22.345 6 22H20.5C21.878 22 23 20.878 23 19.5C23 18.122 21.878 17 20.5 17H16.374C16.456 16.68 16.5 16.345 16.5 16H20.5C22.43 16 24 17.57 24 19.5ZM8.626 17H5.5C3.57 17 2 15.43 2 13.5C2 11.57 3.57 9.99999 5.5 9.99999H14.101L15.124 11H5.5C4.122 11 3 12.122 3 13.5C3 14.878 4.122 16 5.5 16H8.5C8.5 16.345 8.544 16.68 8.626 17Z" fill="#787891"/>
</svg>

<?xml version="1.0" encoding="UTF-8"?>
<svg xmlns="http://www.w3.org/2000/svg" id="Layer_1" data-name="Layer 1" viewBox="0 0 24 24">
  <path d="m17.337,10.367c.458.449,1.061.673,1.663.673s1.205-.224,1.663-.673l1.872-1.831c.945-.944,1.465-2.2,1.465-3.536s-.52-2.591-1.465-3.536c-.944-.944-2.2-1.464-3.535-1.464s-2.591.52-3.536,1.464c-1.95,1.95-1.95,5.122.004,7.075l1.869,1.827Zm-1.166-8.195c.756-.755,1.76-1.171,2.829-1.171s2.073.416,2.828,1.171c.756.755,1.172,1.76,1.172,2.829s-.416,2.073-1.168,2.825l-1.868,1.827c-.531.52-1.396.52-1.928,0l-1.865-1.823c-1.56-1.56-1.56-4.098,0-5.657ZM2,20c-1.103,0-2,.897-2,2s.897,2,2,2,2-.897,2-2-.897-2-2-2Zm0,3c-.551,0-1-.449-1-1s.449-1,1-1,1,.449,1,1-.449,1-1,1Zm8.5-7c0,1.103.897,2,2,2s2-.897,2-2-.897-2-2-2-2,.897-2,2Zm3,0c0,.551-.449,1-1,1s-1-.449-1-1,.449-1,1-1,1,.449,1,1Zm-5,1h-3c-1.93,0-3.5-1.57-3.5-3.5s1.57-3.5,3.5-3.5h9c.276,0,.5.224.5.5s-.224.5-.5.5H5.5c-1.378,0-2.5,1.122-2.5,2.5s1.122,2.5,2.5,2.5h3c.276,0,.5.224.5.5s-.224.5-.5.5Zm15.5,2.5c0,1.93-1.57,3.5-3.5,3.5H6.5c-.276,0-.5-.224-.5-.5s.224-.5.5-.5h14c1.378,0,2.5-1.122,2.5-2.5s-1.122-2.5-2.5-2.5h-4c-.276,0-.5-.224-.5-.5s.224-.5.5-.5h4c1.93,0,3.5,1.57,3.5,3.5Zm-3.999-14.713c0,.552-.448,1-1,1s-1-.448-1-1,.448-1,1-1,1,.448,1,1Z"/>
</svg>
